X: 1
T:Blodam Drain
T:The Flowers Of the Thorn
S:Dick Rutter, Edinburgh
Z:Nigel Gatherer
M:3/4
L:1/4
K:Am
E|A2B|cBA|e d/c/B/A/|B2 B|A A/c/B/d/|cBA|^G G/B/A/c/|B2:|]
B|c2 c|d2 d|e e f|e2 d|c/B/c/d/ c|d/c/d/e/ d|e/f/e/f/e/f/|g3 f/e/d/|
c/B/c/d/e/c/|d/c/d/e/f/d/|e e a|^g2 a|a e c|f e d|c d/c/B/c/|A4|]
